X:1
T: The Bashful Maid
C:
R:Jig
Q:180
K:D
M:6/8
L:1/16
A2|D2A2A2 A2F2A2|A2F2A2 d4B2|G2B2B2 F2A2A2|E2F2E2 E4A2|F2A2A2 A2F2A2|A2F2A2 d4B2|A2B2c2 d2c2B2|A2F2D2 D4A2|
D2A2A2 A2F2A2|A2F2A2 d4B2|G2B2B2 F2A2A2|E2F2E2 E4A2|F2A2A2 A2F2A2|A2F2A2 d4B2|A2B2c2 d2c2B2|A2F2D2 D4d2|
e2c2A2 A2B2A2|e2c2A2 d4A2|G2B2B2 F2A2A2|E2F2E2 E4d2|e2c2A2 A2B2A2|e2d2c2 d4B2|A2B2c2 d2c2B2|A2F2D2 D4d2|
e2c2A2 A2B2A2|e2c2A2 d4A2|G2B2B2 F2A2A2|E2F2E2 E4d2|e2c2A2 A2B2A2|e2d2c2 d4B2|A2B2c2 d2c2B2|A2F2D2 D4||
